X:1
T:Title
%%score { ( 1 3 ) | ( 2 4 ) }
L:1/8
Q:1/4=100
M:6/8
K:Eb
V:1 treble nm="Grand Piano"
V:3 treble 
V:2 bass 
V:4 bass 
V:1
 E3 [DF][EG][FA] | G3 z FG | [DB]3 [FA][EG][DF] | G3 E3 | [DB]3 [DF][EG][FA] | G2 B ed[Gc] | %6
w: Robert~Lowry * * *||||||
 B3 =AGA | [DB]3 A3 | G3 z FG | A3 G2 F | B3 AG[DF] | c3 B3 | c3 ec[Ad] | [Ge]3 B2 A | %14
w: ||||||||
 G3 [DF]2 [DF] | E6 | B3 GB[Ge] | e3 Ace | [Ge]3 [EGB][EG][G,E] | [EG]3 [DF]3 | %20
w: ||||||
 [EG]3 [GB][_G=A][=GB] |[M:7/8] c3 e3 A |[M:3/4] G3 [DF]2 [DF] | E6 |] %24
w: ||||
V:2
 [E,G,]3 [B,,B,]2 [B,,B,] | [E,B,E]3 G,A,[E,B,E] | [B,,B,]3 [B,,B,]2 [B,,B,] | [E,B,E]3 [E,G,]3 | %4
 [B,,F,]3 [B,,B,]2 [B,,B,] | E2 G [C,C][D,=B,][E,C] | [F,DF]3 [F,CE]2 [F,CE] | z3 F3 | %8
 [E,B,E]3 G,A,[E,B,E] | [E,CE]3 [E,B,E]2 [A,B,D] | z3 .[F,D]3 | [E,A,E]3 [E,G,E]3 | %12
 [A,E]3 [F,B,]2 [F,B,] | [E,B,]3[K:treble] [G,B,E]2 [A,CF] | [B,E]3 [B,,A,]2 [B,,A,] | [E,G,]6 | %16
 z3 .[B,E]3 | [A,CA]3 A,-[A,EA][A,CA] | [E,B,]3 z B,E, | [B,,B,]3 [B,,B,]3 | [E,B,]3 [E,E]2 [E,E] | %21
[M:7/8][K:treble] [A,EA]3 [A,CA]3 [A,CF] |[M:3/4][K:bass] [B,E]3 [B,,A,]2 [B,,A,] | [E,G,]6 |] %24
V:3
 x6 | z3 .E3 | x6 | x6 | x6 | z3 .G3 | x6 | x6 | z3 .E3 | x6 | x6 | x6 | z3 .A3 | x6 | x6 | x6 | %16
 x6 | x6 | x6 | x6 | x6 |[M:7/8] x7 |[M:3/4] x6 | x6 |] %24
V:4
 x6 | z3 .E,3 | x6 | x6 | x6 | [E,B,]3 z3 | x6 | [B,,B,]6 | z3 .E,3 | x6 | %10
 [G,B,E]3 B,-[E,B,E][B,,B,] | x6 | x6 | x3[K:treble] x3 | x6 | x6 | [E,G,E]3 E,-[E,EG][E,B,] | %17
 z3 .[CE]3 | z3 .E,3 | x6 | x6 |[M:7/8][K:treble] x7 |[M:3/4][K:bass] x6 | x6 |] %24

